X: 40302
T: Tolka, The
R: polka
M: 2/4
K: Adorian
|:A>(B cg)|(de) (cA)|(B/c/B/A/) (Gd)|(AB) (GE)|
A>(B cg)|(de) (cA)|(B/c/B/A/) (Gd)|(BA) A2:|
|:d>(e fa)|(ga) (fd)|(g/e/d/c/ B)(d/c/|B/A/G) (B/A/G/B/|
A>))(B cg)|(de) (cA)|(B/c/B/A/) (Gd)|(BA) A2:|
M:5/8
|:e>(f2/g2/) fd|e>(f2/g2/) fd|(f/g/f/e/) (dcB)|
M:2/4
d>(c Bc)|[M:5/8](gd) (ecA)|[M:2/4](/4B/c/B/A/) (Gd)|(BA) A2:|

